app/renderer/assets/image/components/buzzer.svg

<?xml version="1.0" encoding="UTF-8"?>
<svg width="150px" height="150px" viewBox="0 0 150 150" version="1.1" xmlns="http://www.w3.org/2000/svg" xmlns:xlink="http://www.w3.org/1999/xlink">
    <!-- Generator: Sketch 46.1 (44463) - http://www.bohemiancoding.com/sketch -->
    <title>buzzer</title>
    <desc>Created with Sketch.</desc>
    <defs></defs>
    <g id="Page-1" stroke="none" stroke-width="1" fill="none" fill-rule="evenodd">
        <g id="buzzer">
            <path d="M69.7372549,102.73913 L69.7372549,129.282609" id="Shape" stroke="#7A7C80" stroke-width="2.50151985"></path>
            <path d="M80.9803922,102.73913 C80.9803922,102.73913 80.9803922,122.826087 80.9803922,129.282609" id="Shape" stroke="#FC3D3D" stroke-width="2.50151985"></path>
            <path d="M20.4588235,56.5869565 C17.827451,57.3043478 14.7176471,60.8913043 14.7176471,64.7173913 C14.7176471,68.5434783 17.3490196,72.1304348 20.4588235,72.8478261 C23.3294118,73.5652174 36.2470588,76.9130435 36.2470588,76.9130435 L36.2470588,52.5217391 L20.4588235,56.5869565 Z M23.3294118,67.826087 C21.654902,67.826087 20.2196078,66.3913043 20.2196078,64.7173913 C20.2196078,63.0434783 21.654902,61.6086957 23.3294118,61.6086957 C25.0039216,61.6086957 26.4392157,63.0434783 26.4392157,64.7173913 C26.4392157,66.3913043 25.0039216,67.826087 23.3294118,67.826087 Z" id="Shape" fill="#252830" fill-rule="nonzero"></path>
            <path d="M130.019608,56.5869565 C127.14902,55.8695652 114.231373,52.5217391 114.231373,52.5217391 L114.231373,76.9130435 L130.019608,72.8478261 C132.65098,72.1304348 135.760784,68.5434783 135.760784,64.7173913 C135.760784,60.8913043 133.129412,57.3043478 130.019608,56.5869565 Z M127.388235,67.826087 C125.713725,67.826087 124.278431,66.3913043 124.278431,64.7173913 C124.278431,63.0434783 125.713725,61.6086957 127.388235,61.6086957 C129.062745,61.6086957 130.498039,63.0434783 130.498039,64.7173913 C130.498039,66.3913043 129.062745,67.826087 127.388235,67.826087 Z" id="Shape" fill="#252830" fill-rule="nonzero"></path>
            <ellipse id="Oval" fill="#0D0D0D" fill-rule="nonzero" cx="75.2392157" cy="64.7173913" rx="43.7764706" ry="43.7608696"></ellipse>
            <ellipse id="Oval" fill="#252830" fill-rule="nonzero" cx="75.2392157" cy="64.7173913" rx="43.7764706" ry="43.7608696"></ellipse>
            <ellipse id="Oval" fill="#D7D8D9" fill-rule="nonzero" cx="75.2392157" cy="64.7173913" rx="7.41568627" ry="7.41304348"></ellipse>
            <path d="M34.0941176,72.3695652 C32.1803922,61.8478261 34.0941176,50.3695652 40.7921569,40.8043478 C53.9490196,21.673913 80.0235294,16.8913043 99.1607843,30.0434783" id="Shape" stroke="#3E4145" stroke-width="1.54871991" stroke-linecap="round" stroke-linejoin="round"></path>
            <g id="Group" transform="translate(42.705882, 31.956522)" stroke="#3F3F41" stroke-width="0.5" stroke-linecap="round" stroke-linejoin="round">
                <path d="M55.4980392,55.7173913 C68.1764706,43.0434783 68.1764706,22.4782609 55.4980392,10.0434783 C42.8196078,-2.63043478 22.2470588,-2.63043478 9.80784314,10.0434783 C-2.87058824,22.7173913 -2.87058824,43.2826087 9.80784314,55.7173913 C22.2470588,68.3913043 42.8196078,68.3913043 55.4980392,55.7173913 Z" id="Shape"></path>
                <path d="M12.2,53.0869565 C0.956862745,41.8478261 0.956862745,23.673913 12.2,12.4347826 C23.4431373,1.19565217 41.6235294,1.19565217 52.8666667,12.4347826 C64.1098039,23.673913 64.1098039,41.8478261 52.8666667,53.0869565 C41.6235294,64.326087 23.4431373,64.326087 12.2,53.0869565 Z" id="Shape"></path>
                <ellipse id="Oval" cx="32.5333333" cy="32.7608696" rx="25.1176471" ry="25.1086957"></ellipse>
                <path d="M17.2235294,48.0652174 C8.85098039,39.6956522 8.85098039,26.0652174 17.2235294,17.4565217 C25.5960784,9.08695652 39.2313725,9.08695652 47.8431373,17.4565217 C56.454902,25.826087 56.2156863,39.4565217 47.8431373,48.0652174 C39.4705882,56.4347826 25.8352941,56.4347826 17.2235294,48.0652174 Z" id="Shape"></path>
                <ellipse id="Oval" cx="32.5333333" cy="32.7608696" rx="17.9411765" ry="17.9347826"></ellipse>
                <path d="M22.4862745,43.0434783 C16.745098,37.3043478 16.745098,28.2173913 22.4862745,22.7173913 C28.227451,16.9782609 37.3176471,16.9782609 42.8196078,22.7173913 C48.5607843,28.4565217 48.5607843,37.5434783 42.8196078,43.0434783 C37.0784314,48.5434783 27.9882353,48.5434783 22.4862745,43.0434783 Z" id="Shape"></path>
            </g>
            <path d="M57.7764706,102.73913 C78.827451,112.304348 103.705882,103.217391 113.27451,82.173913 C118.537255,70.6956522 118.298039,58.0217391 113.27451,47.5" id="Shape" stroke="#303032" stroke-width="1.54871991" stroke-linecap="round" stroke-linejoin="round"></path>
        </g>
    </g>
</svg>

<svg width="150" height="150" xmlns="http://www.w3.org/2000/svg"><g fill="none" fill-rule="evenodd"><path d="M69.737 102.74v26.543" stroke="#7A7C80" stroke-width="2.502"/><path d="M80.98 102.74v26.543" stroke="#FC3D3D" stroke-width="2.502"/><path d="M20.459 56.587c-2.632.717-5.741 4.304-5.741 8.13 0 3.826 2.631 7.413 5.74 8.13 2.871.718 15.79 4.066 15.79 4.066V52.522l-15.79 4.065zm2.87 11.24c-1.674 0-3.11-1.436-3.11-3.11s1.436-3.108 3.11-3.108c1.675 0 3.11 1.434 3.11 3.108 0 1.674-1.435 3.11-3.11 3.11zm106.691-11.24c-2.871-.717-15.789-4.065-15.789-4.065v24.391l15.789-4.065c2.631-.718 5.74-4.305 5.74-8.13 0-3.827-2.63-7.414-5.74-8.131zm-2.632 11.24c-1.674 0-3.11-1.436-3.11-3.11s1.436-3.108 3.11-3.108c1.675 0 3.11 1.434 3.11 3.108 0 1.674-1.435 3.11-3.11 3.11z" fill="#252830" fill-rule="nonzero"/><ellipse fill="#0D0D0D" fill-rule="nonzero" cx="75.239" cy="64.717" rx="43.776" ry="43.761"/><ellipse fill="#252830" fill-rule="nonzero" cx="75.239" cy="64.717" rx="43.776" ry="43.761"/><ellipse fill="#D7D8D9" fill-rule="nonzero" cx="75.239" cy="64.717" rx="7.416" ry="7.413"/><path d="M34.094 72.37c-1.914-10.522 0-22 6.698-31.566 13.157-19.13 39.232-23.913 58.369-10.76" stroke="#3E4145" stroke-width="1.549" stroke-linecap="round" stroke-linejoin="round"/><g transform="translate(42.706 31.957)" stroke="#3F3F41" stroke-width=".5" stroke-linecap="round" stroke-linejoin="round"><path d="M55.498 55.717c12.678-12.674 12.678-33.239 0-45.674-12.678-12.673-33.25-12.673-45.69 0-12.679 12.674-12.679 33.24 0 45.674 12.44 12.674 33.012 12.674 45.69 0z"/><path d="M12.2 53.087C.957 41.847.957 23.674 12.2 12.435c11.243-11.24 29.424-11.24 40.667 0 11.243 11.239 11.243 29.413 0 40.652-11.243 11.24-29.424 11.24-40.667 0z"/><ellipse cx="32.533" cy="32.761" rx="25.118" ry="25.109"/><path d="M17.224 48.065c-8.373-8.37-8.373-22 0-30.608 8.372-8.37 22.007-8.37 30.62 0 8.61 8.37 8.372 22 0 30.608-8.373 8.37-22.009 8.37-30.62 0z"/><ellipse cx="32.533" cy="32.761" rx="17.941" ry="17.935"/><path d="M22.486 43.043c-5.74-5.739-5.74-14.826 0-20.326 5.741-5.739 14.832-5.739 20.334 0 5.74 5.74 5.74 14.826 0 20.326-5.742 5.5-14.832 5.5-20.334 0z"/></g><path d="M57.776 102.74c21.051 9.564 45.93.477 55.499-20.566 5.262-11.478 5.023-24.152 0-34.674" stroke="#303032" stroke-width="1.549" stroke-linecap="round" stroke-linejoin="round"/></g></svg>
